img/logo-github.svg

<svg fill="none" height="24" viewBox="0 0 25 24" width="25" xmlns="http://www.w3.org/2000/svg" xmlns:xlink="http://www.w3.org/1999/xlink"><clipPath id="a"><path d="m.756348 0h24v24h-24z"/></clipPath><g clip-path="url(#a)"><path clip-rule="evenodd" d="m12.7197 0c-6.60555 0-11.963352 5.3578-11.963352 11.9633 0 5.2844 3.449542 9.7615 8.146792 11.3761.58715.0734.80734-.2935.80734-.5871s0-1.0275 0-2.0551c-3.30276.734-4.0367-1.6146-4.0367-1.6146-.51376-1.3945-1.3211-1.7615-1.3211-1.7615-1.10092-.7339.07339-.7339.07339-.7339 1.17431.0734 1.83486 1.2477 1.83486 1.2477 1.10092 1.8348 2.789 1.3211 3.44955 1.0275.07339-.8074.44032-1.3211.73392-1.6147-2.64218-.2936-5.43117-1.3211-5.43117-5.9449 0-1.32115.44037-2.34867 1.2477-3.22941-.07339-.22018-.51376-1.46789.14679-3.08256 0 0 1.02753-.29358 3.30276 1.2477.95412-.29358 1.98162-.36697 3.00922-.36697 1.0275 0 2.055.14679 3.0091.36697 2.2753-1.54128 3.3028-1.2477 3.3028-1.2477.6605 1.61467.2202 2.86238.1468 3.15596.7339.80734 1.2477 1.90821 1.2477 3.22931 0 4.6239-2.789 5.578-5.4312 5.8716.4403.367.8073 1.1009.8073 2.2018v3.3028c0 .2936.2202.6605.8074.5871 4.7706-1.6146 8.1467-6.0917 8.1467-11.3761-.0733-6.6055-5.4311-11.9633-12.0366-11.9633z" fill="#000" fill-rule="evenodd"/></g></svg>

<svg width="25" height="24" viewBox="0 0 25 24" fill="none" xmlns="http://www.w3.org/2000/svg">
<g clip-path="url(#clip0_3399_6113)">
<path fill-rule="evenodd" clip-rule="evenodd" d="M12.7197 0C6.11415 0 0.756348 5.3578 0.756348 11.9633C0.756348 17.2477 4.20589 21.7248 8.90314 23.3394C9.49029 23.4128 9.71048 23.0459 9.71048 22.7523C9.71048 22.4587 9.71048 21.7248 9.71048 20.6972C6.40772 21.4312 5.67378 19.0826 5.67378 19.0826C5.16002 17.6881 4.35268 17.3211 4.35268 17.3211C3.25176 16.5872 4.42607 16.5872 4.42607 16.5872C5.60038 16.6606 6.26093 17.8349 6.26093 17.8349C7.36185 19.6697 9.04993 19.156 9.71048 18.8624C9.78387 18.055 10.1508 17.5413 10.4444 17.2477C7.80222 16.9541 5.01323 15.9266 5.01323 11.3028C5.01323 9.98165 5.4536 8.95413 6.26093 8.07339C6.18754 7.85321 5.74717 6.6055 6.40772 4.99083C6.40772 4.99083 7.43525 4.69725 9.71048 6.23853C10.6646 5.94495 11.6921 5.87156 12.7197 5.87156C13.7472 5.87156 14.7747 6.01835 15.7288 6.23853C18.0041 4.69725 19.0316 4.99083 19.0316 4.99083C19.6921 6.6055 19.2518 7.85321 19.1784 8.14679C19.9123 8.95413 20.4261 10.055 20.4261 11.3761C20.4261 16 17.6371 16.9541 14.9949 17.2477C15.4352 17.6147 15.8022 18.3486 15.8022 19.4495C15.8022 21.0642 15.8022 22.3119 15.8022 22.7523C15.8022 23.0459 16.0224 23.4128 16.6096 23.3394C21.3802 21.7248 24.7563 17.2477 24.7563 11.9633C24.683 5.3578 19.3252 0 12.7197 0Z" fill="black"/>
</g>
<defs>
<clipPath id="clip0_3399_6113">
<rect width="24" height="24" fill="white" transform="translate(0.756348)"/>
</clipPath>
</defs>
</svg>
